X: 212
T:We Ent Goin Far
M:6/8
L:1/8
C:Will Coleman
S:RACCA 2 Cornish Tunes for Cornish Sessions
R:jig
Z:bil@blueskiesink.com
K:G
EBE c2 B|AGA BFE|EBG c2 B|AGA ~B3|EBE c2 B|AGA BGE|Bcd e2 b|agf e3:|
bgb afa|geg fBd|eBg fBa|gfe ~f3|bgb afa|geg fBd|eBg fBb|agf e3|bfb afa|M
:9/8 geg f (c2c3)|M:6/8 eBg fBb|agf ~f3|bgb afa|M:9/8 geg f (c2c3)|M:6/8
eBg fBb|agf e3||
<end>
<start>
